!!!!SEGMENT: pl-cz--d-iii-30--006_elsner-jozef--missa-in-c-op-26-agnus.krn
!!!cenid: 18xx:7
!!!COM: Elsner, Józef
!!!COM-rismid: pe30000957
!!!CDT: 1769/06/01-1854/04/18
!!!CNT: Polish
!!!OPR: Missa in C op. 26
!!!OTL: Agnus
!!!OMV: 006
!!!PDT: 1820
!!!AGN: Sacred; Mass
!!!SMS-siglum: PL-CZ
!!!SMS-shelfmark: D III-30
!!!SMS-shelfwork: 001-006 M
!!!NIFC-rismid:
!!!URL-scan: http://repozytorium.nifc.pl/skany/pl-cz-nut--diii-30
!!!ONB-nifc:
!!!key:
**kern	**fb	**dynam	**kern	**kern	**dynam	**kern	**dynam	**kern	**text	**kern	**text	**kern	**text	**kern	**text	**kern	**kern	**kern	**dynam	**kern	**kern	**kern	**kern	**kern	**dynam	**kern	**dynam
*part17	*	*part17	*part16	*part15	*part15	*part14	*part14	*part13	*part13	*part12	*part12	*part11	*part11	*part10	*part10	*part9	*part8	*part7	*part7	*part6	*part5	*part4	*part3	*part2	*part2	*part1	*part1
*staff17	*	*	*staff16	*staff15	*	*staff14	*	*staff13	*staff13	*staff12	*staff12	*staff11	*staff11	*staff10	*staff10	*staff9	*staff8	*staff7	*	*staff6	*staff5	*staff4	*staff3	*staff2	*	*staff1	*
*Iorgan	*	*	*Iviola	*Ivioln	*	*Ivioln	*	*Ibass	*	*Itenor	*	*Ialto	*	*Isoprn	*	*Itimpa	*Itromb	*Iempty	*	*Icor	*Icor	*Ifagot	*Iclars	*Iclars	*	*Iflt	*
*I"ORGANO	*	*	*I"VIOLA .	*I"VIOLINO II .	*	*I"VIOLINO PRIMO.	*	*I"BASSO.	*	*I"TENORE.	*	*I"ALTO.	*	*I"SOPRANO.	*	*I"Timpani in C G	*I"TROMBONE BASSO	*I"CLARINO I & II in C.	*	*I"Corno IIdo in C	*I"Corno Imo in C	*I"FAGOTTI I II .	*I"CLARINETTO II	*I"CLARINETTO I. in C.	*	*I"FLAUTI I & II	*
*I'Org	*	*	*I'Vla	*I'Vn II	*	*I'Vn I	*	*I'B	*	*I'T	*	*I'A	*	*I'S	*	*I'Timp	*I'B Tbn	*I'Clno I & II	*	*I'Cor II	*I'Cor I	*I'Fg I & II	*I'Cl II	*I'Cl I	*	*I'Fl I & II	*
*clefF4	*	*	*clefC3	*clefG2	*	*clefG2	*	*clefF4	*	*clefC4	*	*clefC3	*	*clefC1	*	*clefF4	*clefF4	*clefG2	*	*clefG2	*clefG2	*clefF4	*clefG2	*clefG2	*	*clefG2	*
*k[]	*	*	*k[]	*k[]	*	*k[]	*	*k[]	*	*k[]	*	*k[]	*	*k[]	*	*k[]	*k[]	*k[]	*	*k[]	*k[]	*k[]	*k[]	*k[]	*	*k[]	*
*c:	*	*	*c:	*c:	*	*c:	*	*c:	*	*c:	*	*c:	*	*c:	*	*c:	*c:	*c:	*	*c:	*c:	*c:	*c:	*c:	*	*c:	*
*M4/4	*	*	*M4/4	*M4/4	*	*M4/4	*	*M4/4	*	*M4/4	*	*M4/4	*	*M4/4	*	*M4/4	*M4/4	*M4/4	*	*M4/4	*M4/4	*M4/4	*M4/4	*M4/4	*	*M4/4	*
*met(c)	*	*	*met(c)	*met(c)	*	*met(c)	*	*met(c)	*	*met(c)	*	*met(c)	*	*met(c)	*	*met(c)	*met(c)	*met(c)	*	*met(c)	*met(c)	*met(c)	*met(c)	*met(c)	*	*met(c)	*
=1	=1	=1	=1	=1	=1	=1	=1	=1	=1	=1	=1	=1	=1	=1	=1	=1	=1	=1	=1	=1	=1	=1	=1	=1	=1	=1	=1
!	!	!	!	!	!	!	!	!	!	!	!	!	!	!	!	!	!	!	!	!LO:TX:a:t=in C.	!	!	!	!	!	!LO:TX:a:B:t=Andante	!
(>4AA	.	p	(>4A\	8c	.	8a	p	1r	.	1r	.	1r	.	1r	.	1r	1r	1r	.	1r	1r	1A [1e	1a	1cc	.	1r	.
.	.	.	.	4c	.	4a	.	.	.	.	.	.	.	.	.	.	.	.	.	.	.	.	.	.	.	.	.
4C	.	.	4c	.	.	.	.	.	.	.	.	.	.	.	.	.	.	.	.	.	.	.	.	.	.	.	.
.	.	.	.	4c	.	4a	.	.	.	.	.	.	.	.	.	.	.	.	.	.	.	.	.	.	.	.	.
4E/	.	.	4e	.	.	.	.	.	.	.	.	.	.	.	.	.	.	.	.	.	.	.	.	.	.	.	.
.	.	.	.	4c	.	4a	.	.	.	.	.	.	.	.	.	.	.	.	.	.	.	.	.	.	.	.	.
4C)	.	.	4c)	.	.	.	.	.	.	.	.	.	.	.	.	.	.	.	.	.	.	.	.	.	.	.	.
.	.	.	.	8c	.	8a	.	.	.	.	.	.	.	.	.	.	.	.	.	.	.	.	.	.	.	.	.
=2	=2	=2	=2	=2	=2	=2	=2	=2	=2	=2	=2	=2	=2	=2	=2	=2	=2	=2	=2	=2	=2	=2	=2	=2	=2	=2	=2
(>4AA	.	.	4A\	8c	.	8a	.	2.A	A-	2.c	A-	2.a	A-	(>2.a	A-	1r	1r	1r	.	1r	1r	1A 1e]	1a	1cc	.	1r	.
.	.	.	.	4c	.	4a	.	.	.	.	.	.	.	.	.	.	.	.	.	.	.	.	.	.	.	.	.
4E/	.	.	4e	.	.	.	.	.	.	.	.	.	.	.	.	.	.	.	.	.	.	.	.	.	.	.	.
.	.	.	.	4c	.	4a	.	.	.	.	.	.	.	.	.	.	.	.	.	.	.	.	.	.	.	.	.
4C	.	.	4c	.	.	.	.	.	.	.	.	.	.	.	.	.	.	.	.	.	.	.	.	.	.	.	.
.	.	.	.	4c	.	4a	.	.	.	.	.	.	.	.	.	.	.	.	.	.	.	.	.	.	.	.	.
4AA)	.	.	4A	.	.	.	.	4A	-gnus	4e	-gnus	4a	-gnus	4cc)	-gnus	.	.	.	.	.	.	.	.	.	.	.	.
.	.	.	.	8c	.	8a	.	.	.	.	.	.	.	.	.	.	.	.	.	.	.	.	.	.	.	.	.
=3	=3	=3	=3	=3	=3	=3	=3	=3	=3	=3	=3	=3	=3	=3	=3	=3	=3	=3	=3	=3	=3	=3	=3	=3	=3	=3	=3
4D	6 5	.	4D	8B	.	8a	.	2D	De-	2f	De-	2a	De-	(>4.b	De-	1r	1r	1r	.	1r	1r	1D [1f	1a	1b	.	1r	.
.	.	.	.	4B	.	4a	.	.	.	.	.	.	.	.	.	.	.	.	.	.	.	.	.	.	.	.	.
4F	.	.	4F	.	.	.	.	.	.	.	.	.	.	.	.	.	.	.	.	.	.	.	.	.	.	.	.
.	.	.	.	4B	.	4a	.	.	.	.	.	.	.	16ddLL)	.	.	.	.	.	.	.	.	.	.	.	.	.
.	.	.	.	.	.	.	.	.	.	.	.	.	.	16ccJJ	.	.	.	.	.	.	.	.	.	.	.	.	.
4A	.	.	4A	.	.	.	.	4D	-i	4f	-i	4a	-i	4b	-i	.	.	.	.	.	.	.	.	.	.	.	.
.	.	.	.	4B	.	4a	.	.	.	.	.	.	.	.	.	.	.	.	.	.	.	.	.	.	.	.	.
4F	.	.	4F	.	.	.	.	4r	.	4r	.	4r	.	4r	.	.	.	.	.	.	.	.	.	.	.	.	.
.	.	.	.	8B	.	8a	.	.	.	.	.	.	.	.	.	.	.	.	.	.	.	.	.	.	.	.	.
=4	=4	=4	=4	=4	=4	=4	=4	=4	=4	=4	=4	=4	=4	=4	=4	=4	=4	=4	=4	=4	=4	=4	=4	=4	=4	=4	=4
4D	.	.	4D	8B	.	8a	.	2r	.	2r	.	2r	.	2r	.	1r	1r	1r	.	1r	1r	1D 1f]	1a	1b	.	1r	.
.	.	.	.	4B	.	4a	.	.	.	.	.	.	.	.	.	.	.	.	.	.	.	.	.	.	.	.	.
4A	.	.	4A	.	.	.	.	.	.	.	.	.	.	.	.	.	.	.	.	.	.	.	.	.	.	.	.
.	.	.	.	4B	.	4a	.	.	.	.	.	.	.	.	.	.	.	.	.	.	.	.	.	.	.	.	.
4F	.	.	4F	.	.	.	.	4r	.	4r	.	4r	.	4r	.	.	.	.	.	.	.	.	.	.	.	.	.
.	.	.	.	4B	.	4a	.	.	.	.	.	.	.	.	.	.	.	.	.	.	.	.	.	.	.	.	.
4D	.	.	4D	.	.	.	.	4D	qui	4f	qui	4a	qui	4b	qui	.	.	.	.	.	.	.	.	.	.	.	.
.	.	.	.	8B	.	8a	.	.	.	.	.	.	.	.	.	.	.	.	.	.	.	.	.	.	.	.	.
!LO:LB:g=original	!	!	!	!LO:LB:g=original	!	!LO:LB:g=original	!	!	!	!	!	!	!	!	!	!	!	!	!	!	!	!	!	!	!	!	!
=5	=5	=5	=5	=5	=5	=5	=5	=5	=5	=5	=5	=5	=5	=5	=5	=5	=5	=5	=5	=5	=5	=5	=5	=5	=5	=5	=5
4E	4 6	.	4E	8c	.	8a	.	2E	tol-	2e	tol-	2a	tol-	2cc	tol-	1r	1r	1r	.	1r	1r	1E [1e	1a	1cc	.	1r	.
.	.	.	.	4a	.	4cc	.	.	.	.	.	.	.	.	.	.	.	.	.	.	.	.	.	.	.	.	.
4A	.	.	4A	.	.	.	.	.	.	.	.	.	.	.	.	.	.	.	.	.	.	.	.	.	.	.	.
.	.	.	.	4a	.	4cc	.	.	.	.	.	.	.	.	.	.	.	.	.	.	.	.	.	.	.	.	.
4c	.	.	4c/	.	.	.	.	4E	-lis	4e	-lis	4a	-lis	4cc	-lis	.	.	.	.	.	.	.	.	.	.	.	.
.	.	.	.	4a	.	4cc	.	.	.	.	.	.	.	.	.	.	.	.	.	.	.	.	.	.	.	.	.
4A	.	.	4A	.	.	.	.	4E	pec-	4e	pec-	4a	pec-	4cc	pec-	.	.	.	.	.	.	.	.	.	.	.	.
.	.	.	.	8a	.	8cc	.	.	.	.	.	.	.	.	.	.	.	.	.	.	.	.	.	.	.	.	.
!	!	!	!LO:LB:g=original	!	!	!	!	!	!	!LO:LB:g=original	!	!	!	!	!	!	!	!	!	!	!	!	!	!	!	!	!
=6	=6	=6	=6	=6	=6	=6	=6	=6	=6	=6	=6	=6	=6	=6	=6	=6	=6	=6	=6	=6	=6	=6	=6	=6	=6	=6	=6
4E	#	.	4E	8g#X	.	8b	.	2E	-ca-	2e	-ca-	2g#X	-ca-	2.b	-ca-	1r	1r	1r	.	4r	4r	1E 1e]	1g#X	1b	.	1r	.
.	.	.	.	4g#	.	4b	.	.	.	.	.	.	.	.	.	.	.	.	.	.	.	.	.	.	.	.	.
!	!	!	!	!	!	!	!	!	!	!	!	!	!	!	!	!	!	!	!	!	!LO:TX:a:t=in C.	!	!	!	!	!	!
4B	.	.	4B	.	.	.	.	.	.	.	.	.	.	.	.	.	.	.	.	8eL	8eeL	.	.	.	.	.	.
.	.	.	.	4g#	.	4b	.	.	.	.	.	.	.	.	.	.	.	.	.	8eJ	8eeJ	.	.	.	.	.	.
4G#X	.	.	4G#X	.	.	.	.	2E	-ta	2e	-ta	2g#	-ta	.	.	.	.	.	.	4e	4ee	.	.	.	.	.	.
.	.	.	.	4g#	.	4b	.	.	.	.	.	.	.	.	.	.	.	.	.	.	.	.	.	.	.	.	.
4E	.	.	4E	.	.	.	.	.	.	.	.	.	.	8eeL	-ta	.	.	.	.	4e	4ee	.	.	.	.	.	.
.	.	.	.	8g#	.	8b	.	.	.	.	.	.	.	8ddJ	.	.	.	.	.	.	.	.	.	.	.	.	.
!	!	!	!	!	!	!	!	!LO:LB:g=original	!	!	!	!LO:LB:g=original	!	!LO:LB:g=original	!	!	!	!	!	!	!	!	!	!	!	!	!
=7	=7	=7	=7	=7	=7	=7	=7	=7	=7	=7	=7	=7	=7	=7	=7	=7	=7	=7	=7	=7	=7	=7	=7	=7	=7	=7	=7
*	*	*	*tremolo	*tremolo	*	*tremolo	*	*	*	*	*	*	*	*	*	*	*	*	*	*	*	*	*	*	*	*	*
8AL	.	.	8AL	16aLL	.	16ccLL	>	4A	mun-	4e	mun-	4a	mun-	4cc	mun-	1r	2r	2r	.	2e	2ee	2A	2a	2cc	<	2r	.
.	.	.	.	16a	.	16cc	.	.	.	.	.	.	.	.	.	.	.	.	.	.	.	.	.	.	.	.	.
8A	.	.	8A	16a	.	16cc	.	.	.	.	.	.	.	.	.	.	.	.	.	.	.	.	.	.	.	.	.
.	.	.	.	16a	.	16cc	.	.	.	.	.	.	.	.	.	.	.	.	.	.	.	.	.	.	.	.	.
8A	#	.	8A	16a	.	16cc	.	8A	-di	8e	-di	8a	-di	8cc	-di	.	.	.	.	.	.	.	.	.	.	.	.
.	.	.	.	16a	.	16cc	.	.	.	.	.	.	.	.	.	.	.	.	.	.	.	.	.	.	.	.	.
8AJ	.	.	8AJ	16a	.	16cc	.	8r	.	8r	.	8r	.	8r	.	.	.	.	.	.	.	.	.	.	.	.	.
.	.	.	.	16aJJ	.	16ccJJ	.	.	.	.	.	.	.	.	.	.	.	.	.	.	.	.	.	.	.	.	.
8GL	4	fp	8GL	16b-XLL/	.	16eLL 16cc#X\.	]	4.G	mi-	4.B-X	mi-	4.e	mi-	4.cc#X^	mi-	.	4G	4g	.	4e	4ee	4G	4b-X/	4cc#	[	4cc#X 4bb-X	f
.	.	.	.	16b-	.	16e 16cc#	.	.	.	.	.	.	.	.	.	.	.	.	.	.	.	.	.	.	fp	.	.
8G	.	.	8G	16b-	.	16e 16cc#	.	.	.	.	.	.	.	.	.	.	.	.	.	.	.	.	.	.	.	.	.
.	.	.	.	16b-	.	16e 16cc#	.	.	.	.	.	.	.	.	.	.	.	.	.	.	.	.	.	.	.	.	.
8G	.	.	8G	16b-/	.	16e 16cc#\	.	.	.	.	.	.	.	.	.	.	4r	4r	.	4r	4r	4r	4r	4r	.	4r	.
.	.	.	.	16b-	.	16e 16cc#	.	.	.	.	.	.	.	.	.	.	.	.	.	.	.	.	.	.	.	.	.
8GJ	.	.	8GJ	16b-	.	16e 16cc#	.	8G	-se-	8B-	-se-	8e	-se-	8cc#	-se-	.	.	.	.	.	.	.	.	.	.	.	.
.	.	.	.	16b-JJ	.	16eJJ 16cc#	.	.	.	.	.	.	.	.	.	.	.	.	.	.	.	.	.	.	.	.	.
=8	=8	=8	=8	=8	=8	=8	=8	=8	=8	=8	=8	=8	=8	=8	=8	=8	=8	=8	=8	=8	=8	=8	=8	=8	=8	=8	=8
8FL	8	.	8FL	16aLL	.	16fLL 16dd\	.	4F	-re-	4A	-re-	4f	-re-	4dd	-re-	1r	4F	1r	.	2dd	2dd	2F	2a	2dd/	.	4dd 4aa	p
.	.	.	.	16a	.	16f 16dd	.	.	.	.	.	.	.	.	.	.	.	.	.	.	.	.	.	.	.	.	.
8F	.	.	8F	16a	.	16f 16dd	.	.	.	.	.	.	.	.	.	.	.	.	.	.	.	.	.	.	.	.	.
.	.	.	.	16a	.	16f 16dd	.	.	.	.	.	.	.	.	.	.	.	.	.	.	.	.	.	.	.	.	.
8F	#	.	8F	16a	.	16f 16dd\	.	8F	-re	8A	-re	8f	-re	8dd	-re	.	4r	.	.	.	.	.	.	.	.	4r	.
.	.	.	.	16a	.	16f 16dd	.	.	.	.	.	.	.	.	.	.	.	.	.	.	.	.	.	.	.	.	.
8FJ	.	.	8FJ	16a	.	16f 16dd	.	8r	.	8r	.	8r	.	8r	.	.	.	.	.	.	.	.	.	.	.	.	.
.	.	.	.	16aJJ	.	16fJJ 16dd	.	.	.	.	.	.	.	.	.	.	.	.	.	.	.	.	.	.	.	.	.
8FL	6 5	fp	8FL	16aLL 16cc/	.	16aLL 16dd#X\	fp	4.F	mi-	4.c	mi-	4.a	mi-	4.dd#X^	mi-	.	4F	.	.	4cc	4cc	4F	4a	4dd#X/	.	4dd#X 4aa	f
.	.	.	.	16a 16cc	.	16a 16dd#	.	.	.	.	.	.	.	.	.	.	.	.	.	.	.	.	.	.	.	.	.
8F	.	.	8F	16a 16cc	.	16a 16dd#	.	.	.	.	.	.	.	.	.	.	.	.	.	.	.	.	.	.	.	.	.
.	.	.	.	16a 16cc	.	16a 16dd#	.	.	.	.	.	.	.	.	.	.	.	.	.	.	.	.	.	.	.	.	.
8F	.	.	8F	16a 16cc/	.	16a 16dd#\	.	.	.	.	.	.	.	.	.	.	4r	.	.	4r	4r	4r	4r	4r	.	4r	.
.	.	.	.	16a 16cc	.	16a 16dd#	.	.	.	.	.	.	.	.	.	.	.	.	.	.	.	.	.	.	.	.	.
8FJ	.	.	8FJ	16a 16cc	.	16a 16dd#	.	8F	-se-	8c	-se-	8a	-se-	8dd#	-se-	.	.	.	.	.	.	.	.	.	.	.	.
.	.	.	.	16aJJ 16cc	.	16aJJ 16dd#	.	.	.	.	.	.	.	.	.	.	.	.	.	.	.	.	.	.	.	.	.
=9	=9	=9	=9	=9	=9	=9	=9	=9	=9	=9	=9	=9	=9	=9	=9	=9	=9	=9	=9	=9	=9	=9	=9	=9	=9	=9	=9
8EL	6 4	.	8EL	16aLL 16cc/	.	16ccLL 16ee	.	4E	-re-	4c	-re-	4a	-re-	4ee	-re-	1r	1E	1e 1ee	.	1e	1ee	1E	2cc	4ee/	fp	4cc 4aa	.
.	.	.	.	16a 16cc	.	16cc 16ee	.	.	.	.	.	.	.	.	.	.	.	.	.	.	.	.	.	.	.	.	.
8E	.	.	8E	16a 16cc	.	16cc 16ee	.	.	.	.	.	.	.	.	.	.	.	.	.	.	.	.	.	.	.	.	.
.	.	.	.	16a 16cc	.	16ccJJ 16ee	.	.	.	.	.	.	.	.	.	.	.	.	.	.	.	.	.	.	.	.	.
*	*	*	*	*	*	*	*	*	*	*	*	*	*	*	*	*	*	*	*	*	*	*	*	*	*	*^	*
8E	5 4	.	8E	16a 16cc/	.	16ccLL 16aa	.	4E	-re	4e	-re	4a	-re	4cc	-re	.	.	.	.	.	.	.	.	2aa/	.	4ccc	2aa	.
.	.	.	.	16a 16cc	.	16cc 16aa	.	.	.	.	.	.	.	.	.	.	.	.	.	.	.	.	.	.	.	.	.	.
8EJ	.	.	8EJ	16a 16cc	.	16cc 16aa	.	.	.	.	.	.	.	.	.	.	.	.	.	.	.	.	.	.	.	.	.	.
.	.	.	.	16aJJ 16cc	.	16ccJJ 16aa	.	.	.	.	.	.	.	.	.	.	.	.	.	.	.	.	.	.	.	.	.	.
8EL	#3	.	8EL	16aLL 16bL\	.	16bLL 16aa	.	2E	no-	4.e	no-	4a	no-	2b	no-	.	.	.	.	.	.	.	2b	.	.	2bb	.	.
.	.	.	.	16a 16b	.	16b 16aa	.	.	.	.	.	.	.	.	.	.	.	.	.	.	.	.	.	.	.	.	.	.
8E	.	.	8E	16a 16b	.	16b 16aa	.	.	.	.	.	.	.	.	.	.	.	.	.	.	.	.	.	.	.	.	.	.
.	.	.	.	16aJJ 16b	.	16bJJ 16aa	.	.	.	.	.	.	.	.	.	.	.	.	.	.	.	.	.	.	.	.	.	.
8E	.	.	8E	16g#XLL 16b\	.	16bLL 16gg#X	.	.	.	.	.	4g#X	.	.	.	.	.	.	.	.	.	.	.	4gg#X/	.	.	4gg#X	.
.	.	.	.	16g# 16b	.	16b 16gg#	.	.	.	.	.	.	.	.	.	.	.	.	.	.	.	.	.	.	.	.	.	.
8EJ	.	.	8EJ	16g# 16b	.	16b 16gg#	.	.	.	8d	.	.	.	.	.	.	.	.	.	.	.	.	.	.	.	.	.	.
.	.	.	.	16g#JJ 16bJ	.	16bJJ 16gg#	.	.	.	.	.	.	.	.	.	.	.	.	.	.	.	.	.	.	.	.	.	.
*	*	*	*	*	*	*	*	*	*	*	*	*	*	*	*	*	*	*	*	*	*	*	*	*	*	*v	*v	*
=10	=10	=10	=10	=10	=10	=10	=10	=10	=10	=10	=10	=10	=10	=10	=10	=10	=10	=10	=10	=10	=10	=10	=10	=10	=10	=10	=10
4AA	.	fp	4A	8a 8cc	.	8a 8aa	.	4A	-bis	4c	-bis	4a	-bis	4a	-bis	1r	2AA	2e 2ee	.	2cc	2ee	2AA	2cc	2aa	.	2aa 2ccc	.
.	.	.	.	4c 4e	.	4a	.	.	.	.	.	.	.	.	.	.	.	.	.	.	.	.	.	.	.	.	.
4E	.	.	4e	.	.	.	.	4r	.	4r	.	4r	.	4r	.	.	.	.	.	.	.	.	.	.	.	.	.
.	.	.	.	4c 4e	.	4a	.	.	.	.	.	.	.	.	.	.	.	.	.	.	.	.	.	.	.	.	.
4C	.	.	4c	.	.	.	.	2r	.	2r	.	2r	.	2r	.	.	2r	2r	.	2r	2r	2r	2r	2r	.	2r	.
.	.	.	.	4c 4e	.	4a	.	.	.	.	.	.	.	.	.	.	.	.	.	.	.	.	.	.	.	.	.
4AA	.	.	4A\	.	.	.	.	.	.	.	.	.	.	.	.	.	.	.	.	.	.	.	.	.	.	.	.
.	.	.	.	8c 8e	.	8a	.	.	.	.	.	.	.	.	.	.	.	.	.	.	.	.	.	.	.	.	.
!	!	!	!	!LO:LB:g=original	!	!LO:LB:g=original	!	!	!	!LO:LB:g=original	!	!	!	!	!	!	!	!LO:LB:g=original	!	!	!	!	!	!	!	!	!
=11	=11	=11	=11	=11	=11	=11	=11	=11	=11	=11	=11	=11	=11	=11	=11	=11	=11	=11	=11	=11	=11	=11	=11	=11	=11	=11	=11
4GG	7	.	4G\	8d 8f	.	8b/	.	1r	.	1r	.	1r	.	1r	.	1r	1r	1r	.	(>1g	(>1dd	1GG (1g	1f	(>1b	p	1r	.
.	.	.	.	4d 4f	.	4b/	.	.	.	.	.	.	.	.	.	.	.	.	.	.	.	.	.	.	.	.	.
4D/	.	.	4d	.	.	.	.	.	.	.	.	.	.	.	.	.	.	.	.	.	.	.	.	.	.	.	.
.	.	.	.	4d 4f	.	4b/	.	.	.	.	.	.	.	.	.	.	.	.	.	.	.	.	.	.	.	.	.
4BB	.	.	4B\	.	.	.	.	.	.	.	.	.	.	.	.	.	.	.	.	.	.	.	.	.	.	.	.
.	.	.	.	4d 4f	.	4b/	.	.	.	.	.	.	.	.	.	.	.	.	.	.	.	.	.	.	.	.	.
4GG	.	.	4G\	.	.	.	.	.	.	.	.	.	.	.	.	.	.	.	.	.	.	.	.	.	.	.	.
.	.	.	.	8d 8f	.	8b/	.	.	.	.	.	.	.	.	.	.	.	.	.	.	.	.	.	.	.	.	.
!LO:LB:g=original	!	!	!LO:LB:g=original	!	!	!	!	!	!	!	!	!	!	!	!	!	!	!	!	!	!	!	!	!LO:PB:g=original	!	!	!
=12	=12	=12	=12	=12	=12	=12	=12	=12	=12	=12	=12	=12	=12	=12	=12	=12	=12	=12	=12	=12	=12	=12	=12	=12	=12	=12	=12
4C\	.	.	4c	8e	.	8cc	.	1r	.	1r	.	1r	.	1r	.	1r	1r	1r	.	1cc)	1ee)	1c 1b)	2e	2cc)	.	1r	.
.	.	.	.	4e	.	4cc	.	.	.	.	.	.	.	.	.	.	.	.	.	.	.	.	.	.	.	.	.
4E	.	.	4e	.	.	.	.	.	.	.	.	.	.	.	.	.	.	.	.	.	.	.	.	.	.	.	.
.	.	.	.	4e	.	4cc	.	.	.	.	.	.	.	.	.	.	.	.	.	.	.	.	.	.	.	.	.
4G	.	.	4g	.	.	.	.	.	.	.	.	.	.	.	.	.	.	.	.	.	.	.	2r	2r	.	.	.
.	.	.	.	4e	.	4cc	.	.	.	.	.	.	.	.	.	.	.	.	.	.	.	.	.	.	.	.	.
4E	.	.	4e	.	.	.	.	.	.	.	.	.	.	.	.	.	.	.	.	.	.	.	.	.	.	.	.
.	.	.	.	8e	.	8cc	.	.	.	.	.	.	.	.	.	.	.	.	.	.	.	.	.	.	.	.	.
=13	=13	=13	=13	=13	=13	=13	=13	=13	=13	=13	=13	=13	=13	=13	=13	=13	=13	=13	=13	=13	=13	=13	=13	=13	=13	=13	=13
4C\	.	.	4c	8e	.	8cc	.	2.c	A-	2.c	A-	2.e	A-	2.cc	A-	1r	1r	1r	.	1cc	1ee	1c 1b	1r	1r	.	1r	.
.	.	.	.	4e	.	4cc	.	.	.	.	.	.	.	.	.	.	.	.	.	.	.	.	.	.	.	.	.
4G	.	.	4g	.	.	.	.	.	.	.	.	.	.	.	.	.	.	.	.	.	.	.	.	.	.	.	.
.	.	.	.	4e	.	4cc	.	.	.	.	.	.	.	.	.	.	.	.	.	.	.	.	.	.	.	.	.
4E	.	.	4e	.	.	.	.	.	.	.	.	.	.	.	.	.	.	.	.	.	.	.	.	.	.	.	.
.	.	.	.	4e	.	4cc	.	.	.	.	.	.	.	.	.	.	.	.	.	.	.	.	.	.	.	.	.
4C	.	.	4c	.	.	.	.	4c	-gnus	4c	-gnus	4g	-gnus	4ee	-gnus	.	.	.	.	.	.	.	.	.	.	.	.
.	.	.	.	8e	.	8cc	.	.	.	.	.	.	.	.	.	.	.	.	.	.	.	.	.	.	.	.	.
=14	=14	=14	=14	=14	=14	=14	=14	=14	=14	=14	=14	=14	=14	=14	=14	=14	=14	=14	=14	=14	=14	=14	=14	=14	=14	=14	=14
4FF	6 5	.	4F	8d	.	8cc	.	2F	De-	2c	De-	2a	De-	(>4.dd	De-	1r	1r	1r	.	1cc	1dd	1F 1a	1r	1r	.	1r	.
.	.	.	.	4d	.	4cc	.	.	.	.	.	.	.	.	.	.	.	.	.	.	.	.	.	.	.	.	.
4AA	.	.	4A	.	.	.	.	.	.	.	.	.	.	.	.	.	.	.	.	.	.	.	.	.	.	.	.
.	.	.	.	4d	.	4cc	.	.	.	.	.	.	.	16ffLL	.	.	.	.	.	.	.	.	.	.	.	.	.
.	.	.	.	.	.	.	.	.	.	.	.	.	.	16eeJJ	.	.	.	.	.	.	.	.	.	.	.	.	.
!	!	!	!	!	!	!	!	!	!	!	!	!	!	!LO:TX:a:t=problem: niejednoznaczne miejsce zakończenia łuku	!	!	!	!	!	!	!	!	!	!	!	!	!
4C	.	.	4c/	.	.	.	.	4F	-i	4c	-i	4a	-i	4dd)	-i	.	.	.	.	.	.	.	.	.	.	.	.
.	.	.	.	4d	.	4cc	.	.	.	.	.	.	.	.	.	.	.	.	.	.	.	.	.	.	.	.	.
4AA	.	.	4A	.	.	.	.	4r	.	4r	.	4r	.	4r	.	.	.	.	.	.	.	.	.	.	.	.	.
.	.	.	.	8d	.	8cc	.	.	.	.	.	.	.	.	.	.	.	.	.	.	.	.	.	.	.	.	.
!	!	!	!	!	!	!	!	!LO:LB:g=original	!	!	!	!LO:LB:g=original	!	!LO:LB:g=original	!	!	!	!	!	!	!	!LO:LB:g=original	!	!	!	!	!
=15	=15	=15	=15	=15	=15	=15	=15	=15	=15	=15	=15	=15	=15	=15	=15	=15	=15	=15	=15	=15	=15	=15	=15	=15	=15	=15	=15
4FF	.	.	4F	8d	.	8cc	.	2r	.	2r	.	2r	.	2r	.	1r	1r	1r	.	1cc	1dd	1F 1a	1r	1r	.	1r	.
.	.	.	.	4d	.	4cc	.	.	.	.	.	.	.	.	.	.	.	.	.	.	.	.	.	.	.	.	.
4C	.	.	4c/	.	.	.	.	.	.	.	.	.	.	.	.	.	.	.	.	.	.	.	.	.	.	.	.
.	.	.	.	4d	.	4cc	.	.	.	.	.	.	.	.	.	.	.	.	.	.	.	.	.	.	.	.	.
4AA	.	.	4A	.	.	.	.	4r	.	4r	.	4r	.	4r	.	.	.	.	.	.	.	.	.	.	.	.	.
.	.	.	.	4d	.	4cc	.	.	.	.	.	.	.	.	.	.	.	.	.	.	.	.	.	.	.	.	.
4FF	.	.	4F	.	.	.	.	4F	qui	4c	qui	4a	qui	4dd	qui	.	.	.	.	.	.	.	.	.	.	.	.
.	.	.	.	8d	.	8cc	.	.	.	.	.	.	.	.	.	.	.	.	.	.	.	.	.	.	.	.	.
!	!	!	!LO:LB:g=original	!	!	!	!	!	!	!	!	!	!	!	!	!	!	!	!	!	!LO:LB:g=original	!	!	!	!	!	!
=16	=16	=16	=16	=16	=16	=16	=16	=16	=16	=16	=16	=16	=16	=16	=16	=16	=16	=16	=16	=16	=16	=16	=16	=16	=16	=16	=16
4GG	6 4	.	4G	8e	.	8cc	.	2G	tol-	2c	to-	2g	tol-	2ee	tol-	1r	1r	1r	.	1cc	1ee	1G 1g	1r	1r	.	1r	.
.	.	.	.	4cc	.	4ee	.	.	.	.	.	.	.	.	.	.	.	.	.	.	.	.	.	.	.	.	.
4C	.	.	4c	.	.	.	.	.	.	.	.	.	.	.	.	.	.	.	.	.	.	.	.	.	.	.	.
.	.	.	.	4cc	.	4ee	.	.	.	.	.	.	.	.	.	.	.	.	.	.	.	.	.	.	.	.	.
4E/	.	.	4e	.	.	.	.	4G	-lis	4c	-llis	4g	-lis	4ee	-lis	.	.	.	.	.	.	.	.	.	.	.	.
.	.	.	.	4cc	.	4ee	.	.	.	.	.	.	.	.	.	.	.	.	.	.	.	.	.	.	.	.	.
4C	.	.	4c	.	.	.	.	4G	pec-	4c	pec-	4g	pec-	4ee	pec-	.	.	.	.	.	.	.	.	.	.	.	.
.	.	.	.	8cc	.	8ee	.	.	.	.	.	.	.	.	.	.	.	.	.	.	.	.	.	.	.	.	.
!	!	!	!	!LO:LB:g=original	!	!	!	!	!	!	!	!	!	!	!	!	!	!	!	!	!	!	!	!	!	!	!
=17	=17	=17	=17	=17	=17	=17	=17	=17	=17	=17	=17	=17	=17	=17	=17	=17	=17	=17	=17	=17	=17	=17	=17	=17	=17	=17	=17
4GG	.	.	4G	8b	.	8dd	.	2G	-ca-	2B	-ca-	2g	-ca-	2.dd	-ca-	1r	1r	1r	.	1g	1dd	1G 1g	4r	4r	.	1r	.
.	.	.	.	4b	.	4dd	.	.	.	.	.	.	.	.	.	.	.	.	.	.	.	.	.	.	.	.	.
4D/	.	.	4d	.	.	.	.	.	.	.	.	.	.	.	.	.	.	.	.	.	.	.	8bL	8ddL	.	.	.
.	.	.	.	4b	.	4dd	.	.	.	.	.	.	.	.	.	.	.	.	.	.	.	.	8bJ	8ddJ	.	.	.
4BB	.	.	4B	.	.	.	.	2G	-ta	2B	-ta	2g	-ta	.	.	.	.	.	.	.	.	.	4b	4dd	.	.	.
.	.	.	.	4b	.	4dd	.	.	.	.	.	.	.	.	.	.	.	.	.	.	.	.	.	.	.	.	.
4GG	.	.	4G	.	.	.	.	.	.	.	.	.	.	8ggL	-ta	.	.	.	.	.	.	.	4b	4dd	.	.	.
.	.	.	.	8b	.	8dd	.	.	.	.	.	.	.	8ffJ	.	.	.	.	.	.	.	.	.	.	.	.	.
!LO:LB:g=original	!	!	!	!	!	!	!	!	!	!	!	!	!	!	!	!	!	!	!	!LO:LB:g=original	!	!	!	!	!	!	!
=18	=18	=18	=18	=18	=18	=18	=18	=18	=18	=18	=18	=18	=18	=18	=18	=18	=18	=18	=18	=18	=18	=18	=18	=18	=18	=18	=18
8CL	.	.	8cL/	16ccLL	.	16eeLL	.	4c	mun-	4c	mun-	4g	mun-	4ee	mun-	1r	2r	2r	.	[1cc	1cc	2c	2cc	2ee/	.	2r	.
.	.	.	.	16cc	.	16ee	.	.	.	.	.	.	.	.	.	.	.	.	.	.	.	.	.	.	.	.	.
8C	.	.	8c	16cc	.	16ee	.	.	.	.	.	.	.	.	.	.	.	.	.	.	.	.	.	.	.	.	.
.	.	.	.	16cc	.	16ee	.	.	.	.	.	.	.	.	.	.	.	.	.	.	.	.	.	.	.	.	.
8C	.	.	8c	16cc	.	16ee	.	8c	-di	8c	-di	8g	-di	8ee	-di	.	.	.	.	.	.	.	.	.	.	.	.
.	.	.	.	16cc	.	16ee	.	.	.	.	.	.	.	.	.	.	.	.	.	.	.	.	.	.	.	.	.
8CJ	.	.	8cJ	16cc	.	16ee	.	8r	.	8r	.	8r	.	8r	.	.	.	.	.	.	.	.	.	.	.	.	.
.	.	.	.	16ccJJ	.	16eeJJ	.	.	.	.	.	.	.	.	.	.	.	.	.	.	.	.	.	.	.	.	.
8B-XL	2	fp	8B-XL	16gLL 16cc\	.	16ccLL 16ee	fp	4.B-X	mi-	4.c	mi-	4.g	mi-	4.ee	mi-	.	4B-X	4cc	.	.	.	4B-X	2cc	2ee/	.	4ee 4gg	f
.	.	.	.	16g 16cc	.	16cc 16ee	.	.	.	.	.	.	.	.	.	.	.	.	.	.	.	.	.	.	.	.	.
8B-	.	.	8B-	16g 16cc	.	16cc 16ee	.	.	.	.	.	.	.	.	.	.	.	.	.	.	.	.	.	.	.	.	.
.	.	.	.	16g 16cc	.	16cc 16ee	.	.	.	.	.	.	.	.	.	.	.	.	.	.	.	.	.	.	.	.	.
8B-	.	.	8B-	16g 16cc\	.	16cc 16ee	.	.	.	.	.	.	.	.	.	.	4r	4r	.	.	.	4r	.	.	.	4r	.
.	.	.	.	16g 16cc	.	16cc 16ee	.	.	.	.	.	.	.	.	.	.	.	.	.	.	.	.	.	.	.	.	.
8B-J	.	.	8B-J	16g 16cc	.	16cc 16ee	.	8B-	-se-	8c	-se-	8g	-se-	8ee	-se-	.	.	.	.	.	.	.	.	.	.	.	.
.	.	.	.	16gJJ 16cc	.	16ccJJ 16ee	.	.	.	.	.	.	.	.	.	.	.	.	.	.	.	.	.	.	.	.	.
!	!	!	!	!	!	!	!	!	!	!LO:LB:g=original	!	!	!	!	!	!	!LO:LBLg=original	!	!	!	!	!	!	!	!	!	!
=19	=19	=19	=19	=19	=19	=19	=19	=19	=19	=19	=19	=19	=19	=19	=19	=19	=19	=19	=19	=19	=19	=19	=19	=19	=19	=19	=19
8AL	6	.	8AL	16aLL 16cc	.	16ccLL 16ff	.	4A	-re-	4c	-re-	4f	-re-	4ff	-re-	1r	4A	4cc	p	1cc]	1cc	4A	2cc	2ff/	.	4ff	p
.	.	.	.	16a 16cc	.	16cc 16ff	.	.	.	.	.	.	.	.	.	.	.	.	.	.	.	.	.	.	.	.	.
8A	.	.	8A	16a 16cc	.	16cc 16ff	.	.	.	.	.	.	.	.	.	.	.	.	.	.	.	.	.	.	.	.	.
.	.	.	.	16a 16cc	.	16cc 16ff	.	.	.	.	.	.	.	.	.	.	.	.	.	.	.	.	.	.	.	.	.
8A	.	.	8A	16a 16cc	.	16cc 16ff	.	8A	-re	8c	-re	8f	-re	8ff	-re	.	4r	4r	.	.	.	4r	.	.	.	4r	.
.	.	.	.	16a 16cc	.	16cc 16ff	.	.	.	.	.	.	.	.	.	.	.	.	.	.	.	.	.	.	.	.	.
8AJ	.	.	8AJ	16a 16cc	.	16cc 16ff	.	8r	.	8r	.	8r	.	8r	.	.	.	.	.	.	.	.	.	.	.	.	.
.	.	.	.	16aJJ 16cc	.	16ccJJ 16ff	.	.	.	.	.	.	.	.	.	.	.	.	.	.	.	.	.	.	.	.	.
8A-XL	#6 5-	fp	8A-XL	16eLL 16ee-X\	.	16ccLL 16ff#X	fp	4.A-X	mi-	4.e-X	mi-	4.cc	mi-	4.ff#X	mi-	.	4A-X	4cc	p	.	.	4A-X	2ee-X	2ff#X/	.	4ff#X 4ccc	f
.	.	.	.	16e 16ee-	.	16cc 16ff#	.	.	.	.	.	.	.	.	.	.	.	.	.	.	.	.	.	.	.	.	.
8A-	.	.	8A-	16e 16ee-	.	16cc 16ff#	.	.	.	.	.	.	.	.	.	.	.	.	.	.	.	.	.	.	.	.	.
.	.	.	.	16e 16ee-	.	16cc 16ff#	.	.	.	.	.	.	.	.	.	.	.	.	.	.	.	.	.	.	.	.	.
8A-	.	.	8A-	16e 16ee-\	.	16cc 16ff#	.	.	.	.	.	.	.	.	.	.	4r	4r	.	.	.	4r	.	.	.	4r	.
.	.	.	.	16e 16ee-	.	16cc 16ff#	.	.	.	.	.	.	.	.	.	.	.	.	.	.	.	.	.	.	.	.	.
8A-J	.	.	8A-J	16e 16ee-	.	16cc 16ff#	.	8A-	-se-	8e-	-se-	8cc	-se-	8ff#	-se-	.	.	.	.	.	.	.	.	.	.	.	.
.	.	.	.	16eJJ 16ee-	.	16ccJJ 16ff#	.	.	.	.	.	.	.	.	.	.	.	.	.	.	.	.	.	.	.	.	.
!	!	!	!	!	!	!	!	!	!	!	!	!	!	!	!	!	!	!	!	!	!	!	!LO:LB:g=original	!	!	!	!
=20	=20	=20	=20	=20	=20	=20	=20	=20	=20	=20	=20	=20	=20	=20	=20	=20	=20	=20	=20	=20	=20	=20	=20	=20	=20	=20	=20
8GL	6 4	<	8GL	16enLL 16een\	.	16ccLL 16gg	>	4G	-re-	4en	-re-	4cc	-re-	4gg	-re-	1r	1G	2e 2cc	.	2cc	2ee	1G	2een	4gg/	.	4ee 4ccc	.
.	.	.	.	16e 16ee	.	16cc 16gg	.	.	.	.	.	.	.	.	.	.	.	.	.	.	.	.	.	.	.	.	.
8G	.	.	8G	16e 16ee	.	16cc 16gg	.	.	.	.	.	.	.	.	.	.	.	.	.	.	.	.	.	.	.	.	.
.	.	.	.	16eJJ 16ee	.	16ccJJ 16gg	.	.	.	.	.	.	.	.	.	.	.	.	.	.	.	.	.	.	.	.	.
*	*	*	*	*	*	*	*	*	*	*	*	*	*	*	*	*	*	*	*	*	*	*	*	*	*	*^	*
8G	.	.	8G	16eLL 16cc	.	16eeLL 16ccc	.	4G	-re	4c	-re	4g	-re	4ee	-re	.	.	.	.	.	.	.	.	2ccc/	.	4eee\	2cc	.
.	.	.	.	16e 16cc	.	16ee 16ccc	.	.	.	.	.	.	.	.	.	.	.	.	.	.	.	.	.	.	.	.	.	.
8GJ	.	.	8GJ	16e 16cc	.	16ee 16ccc	.	.	.	.	.	.	.	.	.	.	.	.	.	.	.	.	.	.	.	.	.	.
.	.	.	.	16eJJ 16cc	.	16eeJJ 16ccc	.	.	.	.	.	.	.	.	.	.	.	.	.	.	.	.	.	.	.	.	.	.
8GL	6 4 3	.	8GL	16dLL 16cc	.	16ddLL 16ccc	.	2G	no-	(>4c	no-	(>4.g	no-	2dd	no-	.	.	2g/ 2dd	.	2g	2dd	.	2dd	.	.	2ddd	.	.
.	.	.	.	16d 16cc	.	16dd 16ccc	.	.	.	.	.	.	.	.	.	.	.	.	.	.	.	.	.	.	.	.	.	.
8G	.	.	8G	16d 16cc	.	16dd 16ccc	.	.	.	.	.	.	.	.	.	.	.	.	.	.	.	.	.	.	.	.	.	.
.	.	.	.	16dJJ 16cc	.	16ddJJ 16ccc	.	.	.	.	.	.	.	.	.	.	.	.	.	.	.	.	.	.	.	.	.	.
8G	.	.	8G	16dLL 16b	.	16ddLL 16bb	.	.	.	4B)	.	.	.	.	.	.	.	.	.	.	.	.	.	4bb/	.	.	4b	.
.	.	.	.	16d 16b	.	16dd 16bb	.	.	.	.	.	.	.	.	.	.	.	.	.	.	.	.	.	.	.	.	.	.
8GJ	.	.	8GJ	16d 16b	.	16dd 16bb	.	.	.	.	.	8f)	.	.	.	.	.	.	.	.	.	.	.	.	.	.	.	.
.	.	.	.	16dJJ 16b	]	16ddJJ 16bb	]	.	.	.	.	.	.	.	.	.	.	.	.	.	.	.	.	.	.	.	.	.
!	!	!	!LO:LBLg=original	!	!	!	!	!LO:LB:g=original	!	!	!	!	!LO:LB:g=original	!	!	!	!	!	!	!	!	!	!	!	!	!	!	!
*	*	*	*	*	*	*	*	*	*	*	*	*	*	*	*	*	*	*	*	*	*	*	*	*	*	*v	*v	*
=21	=21	=21	=21	=21	=21	=21	=21	=21	=21	=21	=21	=21	=21	=21	=21	=21	=21	=21	=21	=21	=21	=21	=21	=21	=21	=21	=21
4C\	-	.	4c	8e-X 8cc	.	8ee-X 8ccc	fp	4C	-bis	4c	-bis	4e-X	-bis	4cc	-bis	1r	4C	4cc	.	4cc	4cc	4C	4ee-X	4ccc	.	4cc 4ccc	.
.	.	.	.	4e-	.	4cc	.	.	.	.	.	.	.	.	.	.	.	.	.	.	.	.	.	.	.	.	.
4G	.	[	4g	.	.	.	.	4r	.	4r	.	4r	.	4r	.	.	4r	4r	.	4r	4r	4r	4r	4r	.	4r	.
.	.	.	.	4e-	.	4cc	.	.	.	.	.	.	.	.	.	.	.	.	.	.	.	.	.	.	.	.	.
4E-X	.	.	4e-X	.	.	.	.	2r	.	2r	.	2r	.	2r	.	.	2r	2r	.	2r	2r	2r	2r	2r	.	2r	.
.	.	.	.	4e-	.	4cc	.	.	.	.	.	.	.	.	.	.	.	.	.	.	.	.	.	.	.	.	.
4C\	.	.	4c/	.	.	.	.	.	.	.	.	.	.	.	.	.	.	.	.	.	.	.	.	.	.	.	.
.	.	.	.	8e-	.	8e-X 8cc\	.	.	.	.	.	.	.	.	.	.	.	.	.	.	.	.	.	.	.	.	.
!	!	!	!	!	!	!	!	!	!	!	!	!	!	!LO:LB:g=original	!	!	!	!	!	!	!	!	!	!	!	!	!
=22	=22	=22	=22	=22	=22	=22	=22	=22	=22	=22	=22	=22	=22	=22	=22	=22	=22	=22	=22	=22	=22	=22	=22	=22	=22	=22	=22
4BB-X\	4- 3-	.	4B-X\	8g	.	8e 8dd-X\	.	1r	.	1r	.	1r	.	1r	.	1r	1r	1r	.	1b-X	1ee-X	1BB-X^	1g	(>1dd-X	p	1r	.
.	.	.	.	4g	.	4e 4dd-\	.	.	.	.	.	.	.	.	.	.	.	.	.	.	.	.	.	.	.	.	.
4G	.	.	4g	.	.	.	.	.	.	.	.	.	.	.	.	.	.	.	.	.	.	.	.	.	.	.	.
.	.	.	.	4g	.	4e 4dd-\	.	.	.	.	.	.	.	.	.	.	.	.	.	.	.	.	.	.	.	.	.
4E-X	.	.	4e-X	.	.	.	.	.	.	.	.	.	.	.	.	.	.	.	.	.	.	.	.	.	.	.	.
.	.	.	.	4g	.	4e 4dd-\	.	.	.	.	.	.	.	.	.	.	.	.	.	.	.	.	.	.	.	.	.
4BB-\	.	.	4B-\	.	.	.	.	.	.	.	.	.	.	.	.	.	.	.	.	.	.	.	.	.	.	.	.
.	.	.	.	8g	.	8e 8dd-\	.	.	.	.	.	.	.	.	.	.	.	.	.	.	.	.	.	.	.	.	.
!LO:LB:g=original	!	!	!	!LO:LB:g=original	!	!LO:LB:g=original	!	!	!	!	!	!	!	!	!	!	!	!	!	!	!	!	!	!	!	!	!
=23	=23	=23	=23	=23	=23	=23	=23	=23	=23	=23	=23	=23	=23	=23	=23	=23	=23	=23	=23	=23	=23	=23	=23	=23	=23	=23	=23
4AA-X	.	.	4A-X	8a-X	.	8e-X 8cc\	.	1r	.	1r	.	1r	.	1r	.	1r	1r	1r	.	2a-X	2ee-X	1AA-X	1a-X	1cc)	.	1r	.
.	.	.	.	4a-	.	4e- 4cc\	.	.	.	.	.	.	.	.	.	.	.	.	.	.	.	.	.	.	.	.	.
4C	.	.	4c	.	.	.	.	.	.	.	.	.	.	.	.	.	.	.	.	.	.	.	.	.	.	.	.
.	.	.	.	4a-	.	4e- 4cc\	.	.	.	.	.	.	.	.	.	.	.	.	.	.	.	.	.	.	.	.	.
4E-X/	.	.	4e-X	.	.	.	.	.	.	.	.	.	.	.	.	.	.	.	.	2r	2r	.	.	.	.	.	.
.	.	.	.	4a-	.	4e- 4cc\	.	.	.	.	.	.	.	.	.	.	.	.	.	.	.	.	.	.	.	.	.
4C	.	.	4c	.	.	.	.	.	.	.	.	.	.	.	.	.	.	.	.	.	.	.	.	.	.	.	.
.	.	.	.	8a-	.	8e- 8cc	.	.	.	.	.	.	.	.	.	.	.	.	.	.	.	.	.	.	.	.	.
=24	=24	=24	=24	=24	=24	=24	=24	=24	=24	=24	=24	=24	=24	=24	=24	=24	=24	=24	=24	=24	=24	=24	=24	=24	=24	=24	=24
4AA-X	.	.	4A-X	8a-X	.	8e-X 8cc\	.	2.A-X	A-	2.e-X	A-	2.a-X	A-	2.cc	A-	1r	1r	1r	.	1r	1r	1AA-X	1a-X	1cc	.	1r	.
.	.	.	.	4a-	.	4e- 4cc\	.	.	.	.	.	.	.	.	.	.	.	.	.	.	.	.	.	.	.	.	.
4E-X/	.	.	4e-X	.	.	.	.	.	.	.	.	.	.	.	.	.	.	.	.	.	.	.	.	.	.	.	.
.	.	.	.	4a-	.	4e- 4cc\	.	.	.	.	.	.	.	.	.	.	.	.	.	.	.	.	.	.	.	.	.
4C	.	.	4c	.	.	.	.	.	.	.	.	.	.	.	.	.	.	.	.	.	.	.	.	.	.	.	.
.	.	.	.	4a-	.	4e- 4cc\	.	.	.	.	.	.	.	.	.	.	.	.	.	.	.	.	.	.	.	.	.
4AA-	.	.	4A-\	.	.	.	.	4A-	-gnus	4c	-gnus	4cc	-gnus	4ee-X	-gnus	.	.	.	.	.	.	.	.	.	.	.	.
.	.	.	.	8a-	.	8e- 8cc\	.	.	.	.	.	.	.	.	.	.	.	.	.	.	.	.	.	.	.	.	.
!	!	!	!	!	!	!	!	!	!	!	!	!	!	!	!	!	!	!	!	!	!	!	!	!LO:LB:g=original	!	!	!
=25	=25	=25	=25	=25	=25	=25	=25	=25	=25	=25	=25	=25	=25	=25	=25	=25	=25	=25	=25	=25	=25	=25	=25	=25	=25	=25	=25
4GG	6- 5-	.	4G	8b-X/	.	8e-X 8dd-X\	.	2G	De-	(>4.d-X	De-	2b-X	De-	(>4.ee-X	De-	1r	1r	1r	.	1ee-X	1ee-X	1GG	1b-X	1dd-X	.	1r	.
.	.	.	.	4b-/	.	4e- 4dd-\	.	.	.	.	.	.	.	.	.	.	.	.	.	.	.	.	.	.	.	.	.
4E-X/	.	.	4e-X	.	.	.	.	.	.	.	.	.	.	.	.	.	.	.	.	.	.	.	.	.	.	.	.
.	.	.	.	4b-/	.	4e- 4dd-\	.	.	.	8B)	.	.	.	8dd-X)	.	.	.	.	.	.	.	.	.	.	.	.	.
4BB-X	.	.	4B-X	.	.	.	.	4G	-i	4d-	-i	4e	-i	4b-X	-i	.	.	.	.	.	.	.	.	.	.	.	.
.	.	.	.	4b-/	.	4e- 4dd-\	.	.	.	.	.	.	.	.	.	.	.	.	.	.	.	.	.	.	.	.	.
4GG	.	.	4G	.	.	.	.	4r	.	4r	.	4r	.	4r	.	.	.	.	.	.	.	.	.	.	.	.	.
.	.	.	.	8b-/	.	8e- 8dd-\	.	.	.	.	.	.	.	.	.	.	.	.	.	.	.	.	.	.	.	.	.
!	!	!	!LO:LB:g=original	!	!	!	!	!	!	!LO:LB:g=original	!	!	!	!	!	!	!	!	!	!	!	!	!	!	!	!	!
=26	=26	=26	=26	=26	=26	=26	=26	=26	=26	=26	=26	=26	=26	=26	=26	=26	=26	=26	=26	=26	=26	=26	=26	=26	=26	=26	=26
4AA	5-	.	4A-X\	8a-X	.	8e-X 8cc\	.	2.A-X	A-	2.e-X	A-	2.a-X	A-	2.cc	A-	1r	1r	1r	.	1ee-X	1ee-X	1AA-X	1a-X	1cc	.	1r	.
.	.	.	.	4a-	.	4e- 4cc\	.	.	.	.	.	.	.	.	.	.	.	.	.	.	.	.	.	.	.	.	.
4e-X	.	.	4e-X	.	.	.	.	.	.	.	.	.	.	.	.	.	.	.	.	.	.	.	.	.	.	.	.
.	.	.	.	4a-	.	4e- 4cc\	.	.	.	.	.	.	.	.	.	.	.	.	.	.	.	.	.	.	.	.	.
4c	.	.	4c\	.	.	.	.	.	.	.	.	.	.	.	.	.	.	.	.	.	.	.	.	.	.	.	.
.	.	.	.	4a-	.	4e- 4cc\	.	.	.	.	.	.	.	.	.	.	.	.	.	.	.	.	.	.	.	.	.
4A	.	.	4A-\	.	.	.	.	4A-	-gnus	4c	-gnus	4cc	-gnus	8ffL	-gnus	.	.	.	.	.	.	.	.	.	.	.	.
.	.	.	.	8a-	.	8e- 8cc\	.	.	.	.	.	.	.	8ee-XJ	.	.	.	.	.	.	.	.	.	.	.	.	.
!	!	!	!	!	!	!LO:LB:g=original	!	!	!	!	!	!	!	!	!	!	!	!	!	!	!	!	!	!	!	!	!
=27	=27	=27	=27	=27	=27	=27	=27	=27	=27	=27	=27	=27	=27	=27	=27	=27	=27	=27	=27	=27	=27	=27	=27	=27	=27	=27	=27
4G	6- 5-	.	4G\	8b-X/	.	8e-X 8dd-X\	.	2G	De-	4.d-X	De-	2b-X	De-	(>4.ee-X	De-	1r	1r	1r	.	(>1ee-X	[>1ee-X	1GG	1b-X	1dd-X	.	1r	.
.	.	.	.	4b-/	.	4e- 4dd-\	.	.	.	.	.	.	.	.	.	.	.	.	.	.	.	.	.	.	.	.	.
4e-X	.	.	4e-X	.	.	.	.	.	.	.	.	.	.	.	.	.	.	.	.	.	.	.	.	.	.	.	.
.	.	.	.	4b-/	.	4e- 4dd-\	.	.	.	8BX	.	.	.	8dd-X)	.	.	.	.	.	.	.	.	.	.	.	.	.
4B-X	.	.	4B-X\	.	.	.	.	4G	-i	4d-	-i	4e-X	-i	4b-X	-i	.	.	.	.	.	.	.	.	.	.	.	.
.	.	.	.	4b-/	.	4e- 4dd-\	.	.	.	.	.	.	.	.	.	.	.	.	.	.	.	.	.	.	.	.	.
4G	.	.	4G\	.	.	.	.	4r	.	4r	.	4r	.	4r	.	.	.	.	.	.	.	.	.	.	.	.	.
.	.	.	.	8b-/	.	8e- 8dd-\	.	.	.	.	.	.	.	.	.	.	.	.	.	.	.	.	.	.	.	.	.
!	!	!	!	!LO:LB:g=original	!	!	!	!	!	!	!	!	!	!	!	!	!	!	!	!	!	!	!	!	!	!	!
=28	=28	=28	=28	=28	=28	=28	=28	=28	=28	=28	=28	=28	=28	=28	=28	=28	=28	=28	=28	=28	=28	=28	=28	=28	=28	=28	=28
4A-X	5-	.	4A-X\	8a-X	.	8e-X 8cc\	.	2r	.	2r	.	2r	.	2r	.	1r	1r	1r	.	1ee-X)	1ee-X]	1AA-X	1a-X	1cc	.	1r	.
.	.	.	.	4a-	.	4e- 4cc\	.	.	.	.	.	.	.	.	.	.	.	.	.	.	.	.	.	.	.	.	.
4e-X	.	.	4e-X	.	.	.	.	.	.	.	.	.	.	.	.	.	.	.	.	.	.	.	.	.	.	.	.
.	.	.	.	4a-	.	4e- 4cc\	.	.	.	.	.	.	.	.	.	.	.	.	.	.	.	.	.	.	.	.	.
4c	.	.	4c	.	.	.	.	4r	.	4r	.	4r	.	4r	.	.	.	.	.	.	.	.	.	.	.	.	.
.	.	.	.	4a-	.	4e- 4cc\	.	.	.	.	.	.	.	.	.	.	.	.	.	.	.	.	.	.	.	.	.
4A-	.	.	4A-\	.	.	.	.	4A-X	qui	4A-X	qui	4e	qui	4cc	qui	.	.	.	.	.	.	.	.	.	.	.	.
.	.	.	.	8a-	.	8e- 8cc\	.	.	.	.	.	.	.	.	.	.	.	.	.	.	.	.	.	.	.	.	.
!LO:LBLg=original	!	!	!	!	!	!	!	!LO:LB:g=original	!	!	!	!LO:LB:g=original	!	!LO:LB:g=original	!	!	!	!	!	!	!	!	!	!	!	!LO:LB:g=original	!
=29	=29	=29	=29	=29	=29	=29	=29	=29	=29	=29	=29	=29	=29	=29	=29	=29	=29	=29	=29	=29	=29	=29	=29	=29	=29	=29	=29
4En	6 5	.	4En	8c 8b-X	.	8g 8cc\	.	2En	tol-	2B-X	tol-	2g	tol-	2cc	to-	1r	1En	1c 1cc	.	[1cc	[1cc	1En	1b-X	1cc	.	1gg 1bb	.
.	.	.	.	4c 4b-	.	4g 4cc\	.	.	.	.	.	.	.	.	.	.	.	.	.	.	.	.	.	.	.	.	.
4c	.	.	4c/	.	.	.	.	.	.	.	.	.	.	.	.	.	.	.	.	.	.	.	.	.	.	.	.
.	.	.	.	4c 4b-	.	4g 4cc\	.	.	.	.	.	.	.	.	.	.	.	.	.	.	.	.	.	.	.	.	.
4G	.	.	4G	.	.	.	.	4E	-lis	4B-	-lis	4g	-lis	4cc	-lis	.	.	.	.	.	.	.	.	.	.	.	.
.	.	.	.	4c 4b-	.	4g 4cc\	.	.	.	.	.	.	.	.	.	.	.	.	.	.	.	.	.	.	.	.	.
4E	.	.	4E	.	.	.	.	4E	pec-	4B-	pec-	4g	pec-	4cc	pe-	.	.	.	.	.	.	.	.	.	.	.	.
.	.	.	.	8c 8b-	.	8g 8cc\	.	.	.	.	.	.	.	.	.	.	.	.	.	.	.	.	.	.	.	.	.
!	!	!	!	!	!	!	!	!	!	!	!	!	!	!	!	!	!	!	!	!	!LO:LB:g=original	!	!	!	!	!	!
=30	=30	=30	=30	=30	=30	=30	=30	=30	=30	=30	=30	=30	=30	=30	=30	=30	=30	=30	=30	=30	=30	=30	=30	=30	=30	=30	=30
4F	3-	.	4F	8c 8a-X	.	8a-X 8cc	.	2.F	-ca-	2.A-X	-ca-	2.a-X	-ca-	2.cc	-ca-	1r	1F	1c 1cc	.	1cc]	1cc]	1F	1a-X	1cc	.	1ff 1aa-X	.
.	.	.	.	4c 4a-	.	4a- 4cc	.	.	.	.	.	.	.	.	.	.	.	.	.	.	.	.	.	.	.	.	.
4c	.	.	4c/	.	.	.	.	.	.	.	.	.	.	.	.	.	.	.	.	.	.	.	.	.	.	.	.
.	.	.	.	4c 4a-	.	4a- 4cc	.	.	.	.	.	.	.	.	.	.	.	.	.	.	.	.	.	.	.	.	.
4A-X	.	.	4A-X	.	.	.	.	.	.	.	.	.	.	.	.	.	.	.	.	.	.	.	.	.	.	.	.
.	.	.	.	4c 4a-	.	4a- 4cc	.	.	.	.	.	.	.	.	.	.	.	.	.	.	.	.	.	.	.	.	.
4F	.	.	4F	.	.	.	.	4F	-ta	4A-	-ta	4a-	-ta	4cc	-ta	.	.	.	.	.	.	.	.	.	.	.	.
.	.	.	.	8c 8a-	.	8a- 8cc	.	.	.	.	.	.	.	.	.	.	.	.	.	.	.	.	.	.	.	.	.
!	!	!	!LO:LB:g=original	!	!	!	!	!	!	!	!	!	!	!	!	!	!	!	!	!	!	!	!	!	!	!	!
=31	=31	=31	=31	=31	=31	=31	=31	=31	=31	=31	=31	=31	=31	=31	=31	=31	=31	=31	=31	=31	=31	=31	=31	=31	=31	=31	=31
4D	6 5-	.	4D	8B-X 8f	.	8a-X 8b-X	.	4D	mun-	4A-X	mun-	4f	mun-	4b-X	mun-	1r	1D	1r	.	1dd	1dd	1D	1a-X	1b-X	.	1ff 1aa-X	.
.	.	.	.	4B- 4f	.	4a- 4b-	.	.	.	.	.	.	.	.	.	.	.	.	.	.	.	.	.	.	.	.	.
4B-X	.	.	4B-X	.	.	.	.	4D	-di	4A-	-di	4f	-di	4b-	-di	.	.	.	.	.	.	.	.	.	.	.	.
.	.	.	.	4B- 4f	.	4a- 4b-	.	.	.	.	.	.	.	.	.	.	.	.	.	.	.	.	.	.	.	.	.
4F	.	.	4F	.	.	.	.	4r	.	4r	.	4r	.	4r	.	.	.	.	.	.	.	.	.	.	.	.	.
.	.	.	.	4B- 4f	.	4a- 4b-	.	.	.	.	.	.	.	.	.	.	.	.	.	.	.	.	.	.	.	.	.
4D	.	.	4D	.	.	.	.	4D	qui	4A-	qui	4f	qui	4b-	qui	.	.	.	.	.	.	.	.	.	.	.	.
.	.	.	.	8B- 8f	.	8a- 8b-	.	.	.	.	.	.	.	.	.	.	.	.	.	.	.	.	.	.	.	.	.
!	!	!	!	!	!	!LO:LB:g=original	!	!	!	!LO:LB:g=original	!	!	!	!	!	!	!	!	!	!LO:LB:g=original	!	!	!	!	!	!	!
=32	=32	=32	=32	=32	=32	=32	=32	=32	=32	=32	=32	=32	=32	=32	=32	=32	=32	=32	=32	=32	=32	=32	=32	=32	=32	=32	=32
4E-X	.	.	4E-X	8B-X 8g	.	8g 8b	.	2E-X	tol-	2G	to-	2e-X	tol-	2b-X	tol-	1r	1E-X	1r	.	1g	1g	1E-X	1g	1b-X	.	1ee 1gg	.
.	.	.	.	4B- 4g	.	4g 4b	.	.	.	.	.	.	.	.	.	.	.	.	.	.	.	.	.	.	.	.	.
4B-X	.	.	4B	.	.	.	.	.	.	.	.	.	.	.	.	.	.	.	.	.	.	.	.	.	.	.	.
.	.	.	.	4B- 4g	.	4g 4b	.	.	.	.	.	.	.	.	.	.	.	.	.	.	.	.	.	.	.	.	.
4G	.	.	4G	.	.	.	.	4E-	-lis	4G	-llis	4e-	-lis	4b-	-lis	.	.	.	.	.	.	.	.	.	.	.	.
.	.	.	.	4B- 4g	.	4g 4b	.	.	.	.	.	.	.	.	.	.	.	.	.	.	.	.	.	.	.	.	.
4E-	.	.	4E-	.	.	.	.	4E-	pec-	4G	pec-	4e-	pec-	4b-	pec-	.	.	.	.	.	.	.	.	.	.	.	.
.	.	.	.	8B- 8g	.	8g 8b	.	.	.	.	.	.	.	.	.	.	.	.	.	.	.	.	.	.	.	.	.
!	!	!	!	!LO:LB:g=original	!	!	!	!	!	!	!	!	!	!	!	!	!	!	!	!	!	!	!	!	!	!	!
=33	=33	=33	=33	=33	=33	=33	=33	=33	=33	=33	=33	=33	=33	=33	=33	=33	=33	=33	=33	=33	=33	=33	=33	=33	=33	=33	=33
*	*	*	*	*	*	*	*	*	*	*	*	*	*	*	*	*tremolo	*	*	*	*	*	*	*	*	*	*	*
4BBn\	6 5	.	4Bn\	8G 8f	.	8g 8dd	.	2.BBn	-ca-	2.G	-ca-	2.f	-ca-	2.dd	-ca-	8GGL	1BBn	1G 1g	.	1g	1g	1BBn	1g	1dd	.	1ff 1gg	.
.	.	.	.	4G 4f	.	4g 4dd	.	.	.	.	.	.	.	.	.	8GG	.	.	.	.	.	.	.	.	.	.	.
4G	.	.	4g	.	.	.	.	.	.	.	.	.	.	.	.	8GG	.	.	.	.	.	.	.	.	.	.	.
.	.	.	.	4G 4f	.	4g 4dd	.	.	.	.	.	.	.	.	.	8GG	.	.	.	.	.	.	.	.	.	.	.
4D	.	.	4d	.	.	.	.	.	.	.	.	.	.	.	.	8GG	.	.	.	.	.	.	.	.	.	.	.
.	.	.	.	4G 4f	.	4g 4dd	.	.	.	.	.	.	.	.	.	8GG	.	.	.	.	.	.	.	.	.	.	.
4BB	.	.	4B\	.	.	.	.	4BB	-ta	4G	-ta	4f	-ta	4dd	-ta	8GG	.	.	.	.	.	.	.	.	.	.	.
.	.	.	.	8G 8f	.	8g 8dd	.	.	.	.	.	.	.	.	.	8GGJ	.	.	.	.	.	.	.	.	.	.	.
!LO:LB:g=origibal	!	!	!	!	!	!	!	!LO:LB:g=original	!	!	!	!	!	!	!	!	!	!	!	!	!	!	!	!	!	!	!
=34	=34	=34	=34	=34	=34	=34	=34	=34	=34	=34	=34	=34	=34	=34	=34	=34	=34	=34	=34	=34	=34	=34	=34	=34	=34	=34	=34
4C\	-	.	4c	8G 8e-X	.	8g 8ee-X	.	4C	mun-	4G	mun-	4e-X	mun-	4ee-X	mun-	8GGL	1C	1G 1g	.	1c	1cc	1C	1g	1ee-X	.	1ee-X 1gg	.
.	.	.	.	4G 4e-	.	4g 4ee-	.	.	.	.	.	.	.	.	.	8GG	.	.	.	.	.	.	.	.	.	.	.
4G	.	.	4g	.	.	.	.	4C	-di	4G	-di	4e-	-di	4ee-	-di	8GG	.	.	.	.	.	.	.	.	.	.	.
.	.	.	.	4G 4e-	.	4g 4ee-	.	.	.	.	.	.	.	.	.	8GG	.	.	.	.	.	.	.	.	.	.	.
4E-X	.	.	4e-X	.	.	.	.	2r	.	2r	.	2r	.	2r	.	8GG	.	.	.	.	.	.	.	.	.	.	.
.	.	.	.	4G 4e-	.	4g 4ee-	.	.	.	.	.	.	.	.	.	8GG	.	.	.	.	.	.	.	.	.	.	.
4C	.	.	4c	.	.	.	.	.	.	.	.	.	.	.	.	8GG	.	.	.	.	.	.	.	.	.	.	.
.	.	.	.	8G 8e-	.	8g 8ee-	.	.	.	.	.	.	.	.	.	8GGJ	.	.	.	.	.	.	.	.	.	.	.
!	!	!	!	!	!	!	!	!	!	!	!	!LO:LB:g=original	!	!LO:LB:g=original	!	!	!	!	!	!	!	!	!	!	!	!	!
=35	=35	=35	=35	=35	=35	=35	=35	=35	=35	=35	=35	=35	=35	=35	=35	=35	=35	=35	=35	=35	=35	=35	=35	=35	=35	=35	=35
*	*	*	*	*	*	*	*	*	*	*	*	*	*	*	*	*	*	*	*	*	*	*	*	*	*	*^	*
8AA-XL	5-	.	8A-XL	16cLL 16e-X	.	16ee-XLL	.	2A-X	Do-	2c	Do-	2e-X	Do-	2cc	Do-	8CL	1AA-X	1c 1cc	.	1c	1cc	1AA-X	1cc	2ee-X/	.	1ccc	2ee-X	.
.	.	.	.	16c 16e-	.	16ee-	.	.	.	.	.	.	.	.	.	.	.	.	.	.	.	.	.	.	.	.	.	.
8AA-	.	.	8A-	16c 16e-	.	16ee-	.	.	.	.	.	.	.	.	.	8C	.	.	.	.	.	.	.	.	.	.	.	.
.	.	.	.	16c 16e-	.	16ee-	.	.	.	.	.	.	.	.	.	.	.	.	.	.	.	.	.	.	.	.	.	.
8AA-	.	.	8A-	16c 16e-	.	16ee-	.	.	.	.	.	.	.	.	.	8C	.	.	.	.	.	.	.	.	.	.	.	.
.	.	.	.	16c 16e-	.	16ee-	.	.	.	.	.	.	.	.	.	.	.	.	.	.	.	.	.	.	.	.	.	.
8AA-J	.	.	8A-J	16c 16e-	.	16ee-	.	.	.	.	.	.	.	.	.	8C	.	.	.	.	.	.	.	.	.	.	.	.
.	.	.	.	16cJJ 16e-	.	16ee-JJ	.	.	.	.	.	.	.	.	.	.	.	.	.	.	.	.	.	.	.	.	.	.
8AA-L	5n	.	8A-L	16ccLL	.	16eenLL	.	2A-	-na	2c	-na	2en	-na	2cc	-na	8C	.	.	.	.	.	.	.	2een/	.	.	2een	.
.	.	.	.	16cc	.	16ee	.	.	.	.	.	.	.	.	.	.	.	.	.	.	.	.	.	.	.	.	.	.
8AA-	.	.	8A-	16cc	.	16ee	.	.	.	.	.	.	.	.	.	8C	.	.	.	.	.	.	.	.	.	.	.	.
.	.	.	.	16cc	.	16ee	.	.	.	.	.	.	.	.	.	.	.	.	.	.	.	.	.	.	.	.	.	.
8AA-	.	.	8A-	16cc	.	16ee	.	.	.	.	.	.	.	.	.	8C	.	.	.	.	.	.	.	.	.	.	.	.
.	.	.	.	16cc	.	16ee	.	.	.	.	.	.	.	.	.	.	.	.	.	.	.	.	.	.	.	.	.	.
8AA-J	.	.	8A-J	16cc	.	16ee	.	.	.	.	.	.	.	.	.	8CJ	.	.	.	.	.	.	.	.	.	.	.	.
.	.	.	.	16ccJJ	.	16eeJJ	.	.	.	.	.	.	.	.	.	.	.	.	.	.	.	.	.	.	.	.	.	.
!	!	!	!LO:LB:g=original	!	!	!	!	!	!	!	!	!	!	!	!	!	!	!	!	!	!	!	!	!	!	!	!	!
=36	=36	=36	=36	=36	=36	=36	=36	=36	=36	=36	=36	=36	=36	=36	=36	=36	=36	=36	=36	=36	=36	=36	=36	=36	=36	=36	=36	=36
8AA-XL	6	.	8A-XL	16ccLL	.	16ffLL	.	2A	no-	2c	no-	2f	no-	2cc	no-	8CL	1AA-X	1c 1cc	.	1c	1cc	1AA-X	1cc	2ff/	.	1ccc	2ff	.
.	.	.	.	16cc	.	16ff	.	.	.	.	.	.	.	.	.	.	.	.	.	.	.	.	.	.	.	.	.	.
8AA-	.	.	8A-	16cc	.	16ff	.	.	.	.	.	.	.	.	.	8C	.	.	.	.	.	.	.	.	.	.	.	.
.	.	.	.	16cc	.	16ff	.	.	.	.	.	.	.	.	.	.	.	.	.	.	.	.	.	.	.	.	.	.
8AA-	.	.	8A-	16cc	.	16ff	.	.	.	.	.	.	.	.	.	8C	.	.	.	.	.	.	.	.	.	.	.	.
.	.	.	.	16cc	.	16ff	.	.	.	.	.	.	.	.	.	.	.	.	.	.	.	.	.	.	.	.	.	.
8AA-J	.	.	8A-J	16cc	.	16ff	.	.	.	.	.	.	.	.	.	8C	.	.	.	.	.	.	.	.	.	.	.	.
.	.	.	.	16ccJJ	.	16ffJJ	.	.	.	.	.	.	.	.	.	.	.	.	.	.	.	.	.	.	.	.	.	.
8AA-L	6	.	8A-L	16ccLL	.	16ff#XLL	.	2A	-bis	2c	-bis	2f#X	-bis	2cc	-bis	8C	.	.	.	.	.	.	.	2ff#X/	.	.	2ff#X	.
.	.	.	.	16cc	.	16ff#	.	.	.	.	.	.	.	.	.	.	.	.	.	.	.	.	.	.	.	.	.	.
8AA-	.	.	8A-	16cc	.	16ff#	.	.	.	.	.	.	.	.	.	8C	.	.	.	.	.	.	.	.	.	.	.	.
.	.	.	.	16cc	.	16ff#	.	.	.	.	.	.	.	.	.	.	.	.	.	.	.	.	.	.	.	.	.	.
8AA-	.	.	8A-	16cc	.	16ff#	.	.	.	.	.	.	.	.	.	8C	.	.	.	.	.	.	.	.	.	.	.	.
.	.	.	.	16cc	.	16ff#	.	.	.	.	.	.	.	.	.	.	.	.	.	.	.	.	.	.	.	.	.	.
8AA-J	.	.	8A-J	16cc	.	16ff#	.	.	.	.	.	.	.	.	.	8CJ	.	.	.	.	.	.	.	.	.	.	.	.
.	.	.	.	16ccJJ	.	16ff#JJ	.	.	.	.	.	.	.	.	.	.	.	.	.	.	.	.	.	.	.	.	.	.
!	!	!	!	!	!	!LO:LB:g=original	!	!	!	!	!	!	!	!	!	!	!	!	!	!	!	!	!LO:LB:g=original	!	!	!	!	!
*	*	*	*	*	*	*	*	*	*	*	*	*	*	*	*	*	*	*	*	*	*	*	*	*	*	*v	*v	*
=37	=37	=37	=37	=37	=37	=37	=37	=37	=37	=37	=37	=37	=37	=37	=37	=37	=37	=37	=37	=37	=37	=37	=37	=37	=37	=37	=37
4GG	n	.	4G	8bn/	.	8gg	.	1G	pa-	1d	pa-	1g	pa-	1bn	pa-	8GGL	1GG	1G 1g	.	1G	1g	1GG	1bn	1gg	.	1gg 1bbn	.
.	.	.	.	4B 4d	.	4g	.	.	.	.	.	.	.	.	.	8GG	.	.	.	.	.	.	.	.	.	.	.
4BBn	.	.	4B	.	.	.	.	.	.	.	.	.	.	.	.	8GG	.	.	.	.	.	.	.	.	.	.	.
.	.	.	.	4B 4d	.	4g	.	.	.	.	.	.	.	.	.	8GG	.	.	.	.	.	.	.	.	.	.	.
4D/	.	.	4d/	.	.	.	.	.	.	.	.	.	.	.	.	8GG	.	.	.	.	.	.	.	.	.	.	.
.	.	.	.	4B 4d	.	4g	.	.	.	.	.	.	.	.	.	8GG	.	.	.	.	.	.	.	.	.	.	.
4BB	.	.	4B	.	.	.	.	.	.	.	.	.	.	.	.	8GG	.	.	.	.	.	.	.	.	.	.	.
.	.	.	.	8B 8d	.	8g	.	.	.	.	.	.	.	.	.	8GGJ	.	.	.	.	.	.	.	.	.	.	.
*	*	*	*Xtremolo	*Xtremolo	*	*Xtremolo	*	*	*	*	*	*	*	*	*	*Xtremolo	*	*	*	*	*	*	*	*	*	*	*
=38	=38	=38	=38	=38	=38	=38	=38	=38	=38	=38	=38	=38	=38	=38	=38	=38	=38	=38	=38	=38	=38	=38	=38	=38	=38	=38	=38
1GG;	.	.	1G;	1B; 1d	.	1g;	.	1G;	-cem	1d;	-cem	1g;	-cem	1bn;	-cem	1GG;	1GG;	1G; 1g	.	1G;	1g;	1GG;	1bn;	1gg;	.	1gg; 1bb	.
==	==	==	==	==	==	==	==	==	==	==	==	==	==	==	==	==	==	==	==	==	==	==	==	==	==	==	==
*-	*-	*-	*-	*-	*-	*-	*-	*-	*-	*-	*-	*-	*-	*-	*-	*-	*-	*-	*-	*-	*-	*-	*-	*-	*-	*-	*-
!!!system-decoration: s1,s2,s3,s4[(s5,s6,s7,s8)][(s9)][(s10,s11,s12,s13)][(s14,s15,s16)][(s17)]
!!!RDF**kern: > = above
!!!AIN: 1 alto 1 bass 2 clars 2 cor 1 empty 1 fagot 1 flt 1 organ 1 soprn 1 tenor 1 timpa 1 tromb 1 viola 2 violn
!!!ENC: Andrzej Borzym
!!!END: 2020-01-28
!!!ENC: Anna Matuszewska
!!!END: 2020-02-29
